tehsnab/img/inst.svg

<svg width="26" height="24" viewBox="0 0 26 24" fill="none" xmlns="http://www.w3.org/2000/svg">
<g clip-path="url(#clip0_220_41)">
<path d="M21.1441 0H4.33209C2.18939 0 0.452393 1.69661 0.452393 3.78947V20.2105C0.452393 22.3034 2.18939 24 4.33209 24H21.1441C23.2868 24 25.0238 22.3034 25.0238 20.2105V3.78947C25.0238 1.69661 23.2868 0 21.1441 0Z" fill="url(#paint0_linear_220_41)"/>
<path opacity="0.1" d="M23.5689 0.832112C21.8667 5.00369 18.7516 9.56053 14.4969 13.7163C10.2422 17.8721 5.57522 20.9147 1.30432 22.579C0.75137 21.9079 0.450681 21.0719 0.4524 20.2105V3.78948C0.4524 2.78445 0.861153 1.82058 1.58874 1.10992C2.31632 0.399254 3.30314 7.15677e-06 4.3321 7.15677e-06H21.1441C22.026 -0.00167157 22.8819 0.292024 23.5689 0.832112Z" fill="white"/>
<path d="M15.6479 5.68408H9.82836C8.88515 5.68408 7.98057 6.05006 7.31362 6.7015C6.64666 7.35294 6.27197 8.23649 6.27197 9.15777V14.842C6.27197 15.7633 6.64666 16.6468 7.31362 17.2982C7.98057 17.9497 8.88515 18.3157 9.82836 18.3157H15.6479C16.5911 18.3157 17.4957 17.9497 18.1627 17.2982C18.8296 16.6468 19.2043 15.7633 19.2043 14.842V9.15777C19.2043 8.23649 18.8296 7.35294 18.1627 6.7015C17.4957 6.05006 16.5911 5.68408 15.6479 5.68408ZM18.0727 14.343C18.0727 15.1035 17.7634 15.8328 17.2129 16.3706C16.6624 16.9083 15.9157 17.2104 15.1371 17.2104H10.3392C9.56061 17.2104 8.81392 16.9083 8.26338 16.3706C7.71284 15.8328 7.40355 15.1035 7.40355 14.343V9.65671C7.40355 8.89624 7.71284 8.16691 8.26338 7.62918C8.81392 7.09144 9.56061 6.78935 10.3392 6.78935H15.1371C15.9157 6.78935 16.6624 7.09144 17.2129 7.62918C17.7634 8.16691 18.0727 8.89624 18.0727 9.65671V14.343Z" fill="white"/>
<path d="M15.0967 9.71977L15.066 9.68977L15.0402 9.66451C14.4289 9.06957 13.6011 8.73569 12.7382 8.73608C12.3025 8.73898 11.8716 8.8257 11.4701 8.9913C11.0687 9.15691 10.7046 9.39814 10.3987 9.70122C10.0927 10.0043 9.8509 10.3633 9.68705 10.7577C9.52319 11.1521 9.4405 11.5742 9.44369 11.9998C9.44303 12.8635 9.79162 13.6926 10.4136 14.3066C10.7183 14.6078 11.0813 14.8467 11.4816 15.0094C11.8818 15.172 12.3112 15.2552 12.7447 15.254C13.3949 15.2407 14.0271 15.0428 14.5642 14.6846C15.1013 14.3263 15.5201 13.8232 15.7694 13.2365C16.0188 12.6498 16.0879 12.0049 15.9685 11.3804C15.8491 10.756 15.5462 10.179 15.0967 9.71977ZM12.7382 14.1408C12.3034 14.1468 11.8766 14.0263 11.5121 13.7947C11.1476 13.563 10.8619 13.2308 10.6913 12.8401C10.5206 12.4494 10.4728 12.018 10.5539 11.6008C10.635 11.1835 10.8413 10.7992 11.1466 10.4967C11.4519 10.1943 11.8424 9.98739 12.2684 9.90232C12.6945 9.81724 13.1368 9.85785 13.5391 10.019C13.9414 10.1801 14.2856 10.4545 14.5279 10.8072C14.7701 11.1599 14.8995 11.575 14.8995 11.9998C14.9017 12.279 14.8474 12.5559 14.7399 12.8146C14.6325 13.0734 14.4738 13.3089 14.2731 13.5078C14.0724 13.7066 13.8335 13.8648 13.5701 13.9735C13.3068 14.0821 13.0241 14.139 12.7382 14.1408Z" fill="white"/>
<path d="M17.0106 8.58618C17.0114 8.6875 16.9918 8.78799 16.9528 8.8819C16.9139 8.9758 16.8563 9.06128 16.7835 9.13344C16.7107 9.2056 16.624 9.26302 16.5284 9.30241C16.4329 9.34181 16.3303 9.3624 16.2265 9.36302C16.1237 9.36298 16.0219 9.343 15.927 9.30424C15.8321 9.26548 15.746 9.20872 15.6737 9.13723C15.5642 9.0287 15.4897 8.89116 15.4594 8.74167C15.4292 8.59217 15.4446 8.4373 15.5036 8.29625C15.5626 8.15519 15.6628 8.03417 15.7916 7.94818C15.9204 7.86219 16.0722 7.81501 16.2282 7.8125C16.4107 7.81247 16.5875 7.87505 16.7277 7.98934L16.7438 8.00513C16.7699 8.02586 16.7937 8.04914 16.815 8.0746L16.8327 8.09355C16.9485 8.23279 17.0113 8.40685 17.0106 8.58618Z" fill="white"/>
</g>
<defs>
<linearGradient id="paint0_linear_220_41" x1="1.58882" y1="1.11" x2="23.3628" y2="23.4024" gradientUnits="userSpaceOnUse">
<stop stop-color="#FAE100"/>
<stop offset="0.15" stop-color="#FCB720"/>
<stop offset="0.3" stop-color="#FF7950"/>
<stop offset="0.5" stop-color="#FF1C74"/>
<stop offset="1" stop-color="#6C1CD1"/>
</linearGradient>
<clipPath id="clip0_220_41">
<rect width="24.5714" height="24" fill="white" transform="translate(0.452393)"/>
</clipPath>
</defs>
</svg>

<svg width="26" height="24" fill="none" xmlns="http://www.w3.org/2000/svg"><g clip-path="url(#clip0_220_41)"><path d="M21.144 0H4.332C2.19 0 .452 1.697.452 3.79v16.42c0 2.093 1.737 3.79 3.88 3.79h16.812c2.143 0 3.88-1.697 3.88-3.79V3.79c0-2.093-1.737-3.79-3.88-3.79z" fill="url(#paint0_linear_220_41)"/><path opacity=".1" d="M23.569.832c-1.702 4.172-4.817 8.729-9.072 12.884-4.255 4.156-8.922 7.199-13.193 8.863a3.712 3.712 0 01-.852-2.369V3.79c0-1.006.41-1.97 1.137-2.68A3.927 3.927 0 014.332 0h16.812a3.913 3.913 0 012.425.832z" fill="#fff"/><path d="M15.648 5.684h-5.82a3.6 3.6 0 00-2.514 1.018 3.433 3.433 0 00-1.042 2.456v5.684c0 .921.375 1.805 1.042 2.456a3.6 3.6 0 002.514 1.018h5.82a3.6 3.6 0 002.515-1.018 3.433 3.433 0 001.041-2.456V9.158a3.43 3.43 0 00-1.041-2.456 3.6 3.6 0 00-2.515-1.018zm2.425 8.659c0 .76-.31 1.49-.86 2.028-.55.537-1.297.84-2.076.84H10.34a2.972 2.972 0 01-2.076-.84 2.834 2.834 0 01-.86-2.028V9.657c0-.76.31-1.49.86-2.028a2.971 2.971 0 012.076-.84h4.798c.779 0 1.525.302 2.076.84.55.538.86 1.267.86 2.028v4.686z" fill="#fff"/><path d="M15.097 9.72l-.031-.03-.026-.025a3.3 3.3 0 00-3.57-.674 3.322 3.322 0 00-1.071.71 3.234 3.234 0 00-.712 1.057A3.174 3.174 0 009.444 12a3.261 3.261 0 002.038 3.009c.4.163.83.246 1.263.245a3.406 3.406 0 001.82-.57 3.29 3.29 0 001.204-1.447c.25-.587.319-1.232.2-1.857a3.246 3.246 0 00-.872-1.66zm-2.359 4.42a2.23 2.23 0 01-1.226-.345 2.154 2.154 0 01-.82-.955 2.094 2.094 0 01-.138-1.24c.081-.416.287-.8.593-1.103a2.2 2.2 0 011.121-.595 2.24 2.24 0 011.271.117c.402.161.747.435.989.788.242.353.371.768.371 1.193a2.08 2.08 0 01-.16.815 2.121 2.121 0 01-.466.693c-.2.199-.44.357-.703.466a2.22 2.22 0 01-.832.167zm4.272-5.554a.755.755 0 01-.227.547.79.79 0 01-1.324-.391.762.762 0 01.045-.446.782.782 0 01.288-.348.81.81 0 01.436-.136.79.79 0 01.5.177l.016.016a.49.49 0 01.071.07l.018.019a.767.767 0 01.178.492z" fill="#fff"/></g><defs><linearGradient id="paint0_linear_220_41" x1="1.589" y1="1.11" x2="23.363" y2="23.402" gradientUnits="userSpaceOnUse"><stop stop-color="#FAE100"/><stop offset=".15" stop-color="#FCB720"/><stop offset=".3" stop-color="#FF7950"/><stop offset=".5" stop-color="#FF1C74"/><stop offset="1" stop-color="#6C1CD1"/></linearGradient><clipPath id="clip0_220_41"><path fill="#fff" transform="translate(.452)" d="M0 0h24.571v24H0z"/></clipPath></defs></svg>
